X:293
T: Glenmore Hunt (The)
N: O'Farrell's Pocket Companion v.3 (Sky ed. p.132)
N: "Irish"
M: C
L: 1/8
R: hornpipe
Q: 320
K: G
G/A/| {c}B2 AG E2D2| EAAB A2 GA| BABG E2D2| EGGA G2G :|
z| G2 GB d2d2| e2 ef e3d| gfed cBAG| B2A2A2 GA|
BABG E2D2| EAAB A2 GA| cBAG E2D2| EGGA G2G ||
